public/images/mulberry-symbols/flag_lesotho.svg

<svg xmlns="http://www.w3.org/2000/svg" width="665.51" height="733.04" viewBox="0 0 665.51 733.04" overflow="visible"><path d="M69.44 345.41v387.38H29.95L28.83 62.18c5.8 2.59 12.62 4.08 19.92 4.08 7.62 0 14.73-1.63 20.69-4.43V345.41z" fill="#c8c8c8"/><path fill="#58b947" d="M655.01 345.41v122.17H75.39l-1.12-122.17z"/><path fill="#394ea1" d="M655.01 124.87v86.54H73.04L71.9 87.75h583.11z"/><path d="M395.46 303.87c-5.84-11.61-15.41-19.5-21.17-31.2 5.21-11.24 10.13-31.01 1.11-41.23-28.511-19.05-40.57 20.26-25.63 42.35-10.271 18.59-25.44 27.72-34.541 45.68 22.86 14.34 72.25 15.19 93.6-1.11-3.87-4.31-5.05-11.3-8.91-15.6-.209 1.65-2.699 1.02-4.459 1.11zm259.55-92.46v134H74.27l-1.23-134H655.01z" fill="#fff"/><path d="M396.57 318.36c-.83-3.43 3.06-2.14 2.229-5.57 1.96.26 2.54 1.91 2.23 4.45-1.999-.14-2.349 1.37-4.459 1.12zM398.8 308.33c-.01 3.32-2.899 3.79-3.34 6.68-1.95-1.01-3.87-2.07-3.34-5.57 2.62.03 3.28-1.92 6.68-1.11zM388.771 312.79c.3 3.63-4.32 2.36-4.45 5.57-1.3-1.67-3.221-2.73-3.351-5.57 3.46.37 5.33-2.58 7.801 0zM393.23 319.47c-1.62 1.72-4.351 2.34-7.801 2.23-.47-3.81 3.341-3.35 4.46-5.57 2.571-.34 1.241 3.22 3.341 3.34zM382.09 323.93c-5.5-.68-7.56 2.13-10.029-1.12.88-2.46 5.239-1.44 5.569-4.45 3.5-.16 3.83 2.85 4.46 5.57zM368.72 315.01c4.08.83 6.19-2.74 8.91 0-.79 4.51-9.06 6.3-8.91 0zM365.37 232.56c16.84 1.79 9.979 26.24 5.58 36.77-5.061-1.63-4.66-8.72-4.46-15.6 3.04.1 2.24-1.86 4.46 0 0-4.09-3.91-4.27-5.58-6.69v-14.48zM354.23 315.01c3.489.23 8.18-.75 10.029 1.12-.43 3.28-5.25 2.18-6.689 4.46-2.2-.78-2.97-2.98-3.34-5.58zM369.83 323.93c-1.54 2.54-7.75.41-11.14 1.11-1.44-5.15 4.359-3.06 5.569-5.57 4.181-.84 2.431 4.26 5.571 4.46zM353.12 251.5c6.21 1.23 5.91 15.12 1.11 17.83-6.49-7.7-12.92-36.16 4.46-36.77.331 8.51.831 17.17-5.57 18.94zM352 319.47c.48 2.12 2.4 2.8 2.23 5.57-4.561.11-8.761-.15-8.91-4.45 3.41.8 3.27-1.93 6.68-1.12zM341.97 312.79c1.771 2.32 8.851-.68 7.801 4.45-2.07.16-3.721.73-4.45 2.23-1.781-1.56-2.851-3.84-3.351-6.68zM339.75 317.24c.15 2.08.73 3.73 2.22 4.46-1.37 2.71-6.699.13-7.8-1.11-.16-3.14 2.73-3.22 5.58-3.35zM330.83 310.56c3.79-.07 6.12 1.3 7.8 3.34-1.37 1.6-3.83 2.11-6.68 2.23.92-3.15-1.57-2.89-1.12-5.57z" fill="#fff"/><path d="M358.69 325.04c3.39-.7 9.6 1.43 11.14-1.11-3.14-.2-1.39-5.3-5.57-4.46-1.21 2.51-7.01.42-5.57 5.57zm12.26-55.71c4.399-10.53 11.26-34.98-5.58-36.77v14.48c1.67 2.42 5.58 2.6 5.58 6.69-2.22-1.86-1.42.1-4.46 0-.2 6.88-.6 13.97 4.46 15.6zm6.68 45.68c-2.72-2.74-4.83.83-8.91 0-.15 6.3 8.12 4.51 8.91 0zm4.46 8.92c-.63-2.72-.96-5.73-4.46-5.57-.33 3.01-4.689 1.99-5.569 4.45 2.469 3.25 4.529.44 10.029 1.12zm2.23-5.57c.13-3.21 4.75-1.94 4.45-5.57-2.471-2.58-4.341.37-7.801 0 .131 2.84 2.052 3.9 3.351 5.57zm8.91 1.11c-2.101-.12-.771-3.68-3.341-3.34-1.119 2.22-4.93 1.76-4.46 5.57 3.451.11 6.181-.51 7.801-2.23zm5.57-6.68c.83 3.43-3.06 2.14-2.229 5.57 2.109.25 2.46-1.26 4.46-1.12.309-2.54-.271-4.19-2.231-4.45zm0-4.46c-3.399-.81-4.06 1.14-6.68 1.11-.53 3.5 1.39 4.56 3.34 5.57.44-2.89 3.33-3.36 3.34-6.68zm-66.85 7.8c2.85-.12 5.31-.63 6.68-2.23-1.68-2.04-4.01-3.41-7.8-3.34-.45 2.68 2.04 2.42 1.12 5.57zm10.02 5.57c-1.489-.73-2.069-2.38-2.22-4.46-2.85.13-5.74.21-5.58 3.35 1.101 1.24 6.43 3.82 7.8 1.11zm16.72-89.14c-17.38.61-10.95 29.07-4.46 36.77 4.8-2.71 5.1-16.6-1.11-17.83 6.401-1.77 5.901-10.43 5.57-18.94zm-8.919 84.68c1.05-5.13-6.03-2.13-7.801-4.45.5 2.84 1.57 5.12 3.351 6.68.729-1.5 2.379-2.07 4.45-2.23zm59.059 1.12c-21.35 16.3-70.74 15.45-93.6 1.11 9.1-17.96 24.27-27.09 34.541-45.68-14.94-22.09-2.881-61.4 25.63-42.35 9.02 10.22 4.1 29.99-1.11 41.23 5.76 11.7 15.33 19.59 21.17 31.2 1.76-.09 4.25.54 4.46-1.11 3.859 4.3 5.039 11.29 8.909 15.6zm-54.6 6.68c.17-2.77-1.75-3.45-2.23-5.57-3.41-.81-3.27 1.92-6.68 1.12.15 4.3 4.35 4.56 8.91 4.45zm0-10.03c.369 2.6 1.14 4.8 3.34 5.58 1.439-2.28 6.26-1.18 6.689-4.46-1.849-1.87-6.539-.89-10.029-1.12z" fill="#231f20"/><path d="M69.44 61.83c-5.96 2.8-13.07 4.43-20.69 4.43-7.3 0-14.12-1.49-19.92-4.08-10.99-4.89-18.33-13.72-18.33-23.8 0-15.4 17.13-27.88 38.25-27.88 21.13 0 38.26 12.48 38.26 27.88 0 9.84-7 18.49-17.57 23.45z" fill="#c8c8c8"/><g fill="none" stroke="#231f20"><path stroke-width="21" d="M71.9 87.75h583.11v379.83H75.39M28.83 62.18C17.84 57.29 10.5 48.46 10.5 38.38c0-15.4 17.13-27.88 38.25-27.88 21.13 0 38.26 12.48 38.26 27.88 0 9.84-7 18.49-17.57 23.45-5.96 2.8-13.07 4.43-20.69 4.43-7.3 0-14.12-1.49-19.92-4.08z"/><path stroke-width="21" d="M28.83 61.41v.77l1.12 670.61M69.44 60.01v672.78"/><path stroke-width="14" d="M651.59 126.8l3.42-1.93 2.011-1.14M68.83 211.41h586M68.83 345.41H656.83"/></g></svg>

<?xml version="1.0" encoding="iso-8859-1"?>
<!-- Generator: Adobe Illustrator 12.0.1, SVG Export Plug-In . SVG Version: 6.00 Build 51448)  -->
<!DOCTYPE svg PUBLIC "-//W3C//DTD SVG 1.1//EN" "http://www.w3.org/Graphics/SVG/1.1/DTD/svg11.dtd" [
	<!ENTITY ns_svg "http://www.w3.org/2000/svg">
	<!ENTITY ns_xlink "http://www.w3.org/1999/xlink">
]>
<svg  version="1.1" id="Layer_1" xmlns="&ns_svg;" xmlns:xlink="&ns_xlink;" width="665.51" height="733.04"
	 viewBox="0 0 665.51 733.04" style="overflow:visible;enable-background:new 0 0 665.51 733.04;" xml:space="preserve">
<g id="XMLID_1_">
	<g>
		<path style="fill:#C8C8C8;" d="M69.44,345.41v387.38H29.95L28.83,62.18c5.8,2.59,12.62,4.08,19.92,4.08
			c7.62,0,14.73-1.63,20.69-4.43v149.58V345.41z"/>
		<polygon style="fill:#58B947;" points="655.01,345.41 655.01,467.58 75.39,467.58 74.27,345.41 		"/>
		<polygon style="fill:#394EA1;" points="655.01,124.87 655.01,211.41 654.83,211.41 73.04,211.41 71.9,87.75 655.01,87.75 		"/>
		<path style="fill:#FFFFFF;" d="M395.46,303.87c-5.84-11.61-15.41-19.5-21.17-31.2c5.21-11.24,10.13-31.01,1.11-41.23
			c-28.511-19.05-40.57,20.26-25.63,42.35c-10.271,18.59-25.44,27.72-34.541,45.68c22.86,14.34,72.25,15.19,93.6-1.11
			c-3.87-4.31-5.05-11.3-8.91-15.6C399.71,304.41,397.22,303.78,395.46,303.87z M655.01,211.41v134H74.27l-1.23-134h581.79H655.01z"
			/>
		<path style="fill:#FFFFFF;" d="M396.57,318.36c-0.83-3.43,3.06-2.14,2.229-5.57c1.96,0.26,2.54,1.91,2.23,4.45
			C399.03,317.1,398.68,318.61,396.57,318.36z"/>
		<path style="fill:#FFFFFF;" d="M398.8,308.33c-0.01,3.32-2.899,3.79-3.34,6.68c-1.95-1.01-3.87-2.07-3.34-5.57
			C394.74,309.47,395.4,307.52,398.8,308.33z"/>
		<path style="fill:#FFFFFF;" d="M388.771,312.79c0.3,3.63-4.32,2.36-4.45,5.57c-1.3-1.67-3.221-2.73-3.351-5.57
			C384.43,313.16,386.3,310.21,388.771,312.79z"/>
		<path style="fill:#FFFFFF;" d="M393.23,319.47c-1.62,1.72-4.351,2.34-7.801,2.23c-0.47-3.81,3.341-3.35,4.46-5.57
			C392.46,315.79,391.13,319.35,393.23,319.47z"/>
		<path style="fill:#FFFFFF;" d="M382.09,323.93c-5.5-0.68-7.56,2.13-10.029-1.12c0.88-2.46,5.239-1.44,5.569-4.45
			C381.13,318.2,381.46,321.21,382.09,323.93z"/>
		<path style="fill:#FFFFFF;" d="M368.72,315.01c4.08,0.83,6.19-2.74,8.91,0C376.84,319.52,368.57,321.31,368.72,315.01z"/>
		<path style="fill:#FFFFFF;" d="M365.37,232.56c16.84,1.79,9.979,26.24,5.58,36.77c-5.061-1.63-4.66-8.72-4.46-15.6
			c3.04,0.1,2.24-1.86,4.46,0c0-4.09-3.91-4.27-5.58-6.69C365.37,242.22,365.37,237.39,365.37,232.56z"/>
		<path style="fill:#FFFFFF;" d="M354.23,315.01c3.489,0.23,8.18-0.75,10.029,1.12c-0.43,3.28-5.25,2.18-6.689,4.46
			C355.37,319.81,354.6,317.61,354.23,315.01z"/>
		<path style="fill:#FFFFFF;" d="M369.83,323.93c-1.54,2.54-7.75,0.41-11.14,1.11c-1.44-5.15,4.359-3.06,5.569-5.57
			C368.44,318.63,366.69,323.73,369.83,323.93z"/>
		<path style="fill:#FFFFFF;" d="M353.12,251.5c6.21,1.23,5.91,15.12,1.11,17.83c-6.49-7.7-12.92-36.16,4.46-36.77
			C359.021,241.07,359.521,249.73,353.12,251.5z"/>
		<path style="fill:#FFFFFF;" d="M352,319.47c0.48,2.12,2.4,2.8,2.23,5.57c-4.561,0.11-8.761-0.15-8.91-4.45
			C348.73,321.39,348.59,318.66,352,319.47z"/>
		<path style="fill:#FFFFFF;" d="M341.97,312.79c1.771,2.32,8.851-0.68,7.801,4.45c-2.07,0.16-3.721,0.73-4.45,2.23
			C343.54,317.91,342.47,315.63,341.97,312.79z"/>
		<path style="fill:#FFFFFF;" d="M339.75,317.24c0.15,2.08,0.73,3.73,2.22,4.46c-1.37,2.71-6.699,0.13-7.8-1.11
			C334.01,317.45,336.9,317.37,339.75,317.24z"/>
		<path style="fill:#FFFFFF;" d="M330.83,310.56c3.79-0.07,6.12,1.3,7.8,3.34c-1.37,1.6-3.83,2.11-6.68,2.23
			C332.87,312.98,330.38,313.24,330.83,310.56z"/>
		<path style="fill:#231F20;" d="M358.69,325.04c3.39-0.7,9.6,1.43,11.14-1.11c-3.14-0.2-1.39-5.3-5.57-4.46
			C363.05,321.98,357.25,319.89,358.69,325.04z M370.95,269.33c4.399-10.53,11.26-34.98-5.58-36.77c0,4.83,0,9.66,0,14.48
			c1.67,2.42,5.58,2.6,5.58,6.69c-2.22-1.86-1.42,0.1-4.46,0C366.29,260.61,365.89,267.7,370.95,269.33z M377.63,315.01
			c-2.72-2.74-4.83,0.83-8.91,0C368.57,321.31,376.84,319.52,377.63,315.01z M382.09,323.93c-0.63-2.72-0.96-5.73-4.46-5.57
			c-0.33,3.01-4.689,1.99-5.569,4.45C374.53,326.06,376.59,323.25,382.09,323.93z M384.32,318.36c0.13-3.21,4.75-1.94,4.45-5.57
			c-2.471-2.58-4.341,0.37-7.801,0C381.1,315.63,383.021,316.69,384.32,318.36z M393.23,319.47c-2.101-0.12-0.771-3.68-3.341-3.34
			c-1.119,2.22-4.93,1.76-4.46,5.57C388.88,321.81,391.61,321.19,393.23,319.47z M398.8,312.79c0.83,3.43-3.06,2.14-2.229,5.57
			c2.109,0.25,2.46-1.26,4.46-1.12C401.34,314.7,400.76,313.05,398.8,312.79z M398.8,308.33c-3.399-0.81-4.06,1.14-6.68,1.11
			c-0.53,3.5,1.39,4.56,3.34,5.57C395.9,312.12,398.79,311.65,398.8,308.33z M331.95,316.13c2.85-0.12,5.31-0.63,6.68-2.23
			c-1.68-2.04-4.01-3.41-7.8-3.34C330.38,313.24,332.87,312.98,331.95,316.13z M341.97,321.7c-1.489-0.73-2.069-2.38-2.22-4.46
			c-2.85,0.13-5.74,0.21-5.58,3.35C335.271,321.83,340.6,324.41,341.97,321.7z M358.69,232.56c-17.38,0.61-10.95,29.07-4.46,36.77
			c4.8-2.71,5.1-16.6-1.11-17.83C359.521,249.73,359.021,241.07,358.69,232.56z M349.771,317.24c1.05-5.13-6.03-2.13-7.801-4.45
			c0.5,2.84,1.57,5.12,3.351,6.68C346.05,317.97,347.7,317.4,349.771,317.24z M408.83,318.36c-21.35,16.3-70.74,15.45-93.6,1.11
			c9.1-17.96,24.27-27.09,34.541-45.68c-14.94-22.09-2.881-61.4,25.63-42.35c9.02,10.22,4.1,29.99-1.11,41.23
			c5.76,11.7,15.33,19.59,21.17,31.2c1.76-0.09,4.25,0.54,4.46-1.11C403.78,307.06,404.96,314.05,408.83,318.36z M354.23,325.04
			c0.17-2.77-1.75-3.45-2.23-5.57c-3.41-0.81-3.27,1.92-6.68,1.12C345.47,324.89,349.67,325.15,354.23,325.04z M354.23,315.01
			c0.369,2.6,1.14,4.8,3.34,5.58c1.439-2.28,6.26-1.18,6.689-4.46C362.41,314.26,357.72,315.24,354.23,315.01z"/>
		<path style="fill:#C8C8C8;" d="M69.44,61.83c-5.96,2.8-13.07,4.43-20.69,4.43c-7.3,0-14.12-1.49-19.92-4.08
			C17.84,57.29,10.5,48.46,10.5,38.38c0-15.4,17.13-27.88,38.25-27.88c21.13,0,38.26,12.48,38.26,27.88
			C87.01,48.22,80.01,56.87,69.44,61.83z"/>
	</g>
	<g>
		<polyline style="fill:none;stroke:#231F20;stroke-width:21;" points="71.9,87.75 655.01,87.75 655.01,124.87 655.01,211.41 
			655.01,345.41 655.01,467.58 75.39,467.58 		"/>
		<path style="fill:none;stroke:#231F20;stroke-width:21;" d="M28.83,62.18C17.84,57.29,10.5,48.46,10.5,38.38
			c0-15.4,17.13-27.88,38.25-27.88c21.13,0,38.26,12.48,38.26,27.88c0,9.84-7,18.49-17.57,23.45c-5.96,2.8-13.07,4.43-20.69,4.43
			C41.45,66.26,34.63,64.77,28.83,62.18z"/>
		<polyline style="fill:none;stroke:#231F20;stroke-width:21;" points="28.83,61.41 28.83,62.18 29.95,732.79 		"/>
		<polyline style="fill:none;stroke:#231F20;stroke-width:21;" points="69.44,60.01 69.44,61.83 69.44,211.41 69.44,345.41 
			69.44,732.79 		"/>
		<polyline style="fill:none;stroke:#231F20;stroke-width:14;" points="651.59,126.8 655.01,124.87 657.021,123.73 		"/>
		<polyline style="fill:none;stroke:#231F20;stroke-width:14;" points="68.83,211.41 69.44,211.41 73.04,211.41 654.83,211.41 		"/>
		<polyline style="fill:none;stroke:#231F20;stroke-width:14;" points="68.83,345.41 69.44,345.41 74.27,345.41 655.01,345.41 
			656.83,345.41 		"/>
	</g>
</g>
</svg>
